X: 14456
T: Game Cock, The
R: slide
M: 12/8
K: Dmajor
|:F2 A d2 A BAB d2 A|BAF A2 F EFE EDE|
F2 A d2 A BAB d2 A|1 BAF A2 F DED D2 E:|2 BAF A2 F DED D3||
|:~f3 f2 e d2 e f2 g|a2 f def efe ede|
[1 ~f3 f2 e d2 e f2 e|d2 B A2 F DED D3:|
[2 f2 a f2 e d2 e f2 e|d2 B A2 F DED D3||

